dist/svgs/crypto-icons/icons/cloak.svg

<?xml version="1.0" encoding="UTF-8" standalone="yes"?>
<svg xmlns="http://www.w3.org/2000/svg" xmlns:xlink="http://www.w3.org/1999/xlink" width="512px" height="512px" viewBox="0 0 384 384" version="1.1">
  <g id="surface1">
    <path style=" stroke:none;fill-rule:nonzero;fill:rgb(0%,0%,0%);fill-opacity:1;" d="M 191.835938 0 C 86.054688 0 0 86.054688 0 191.835938 C 0 297.613281 86.054688 383.671875 191.835938 383.671875 C 297.613281 383.671875 383.671875 297.613281 383.671875 191.835938 C 383.667969 86.054688 297.613281 0 191.835938 0 Z M 191.835938 353.589844 C 102.644531 353.589844 30.082031 281.027344 30.082031 191.835938 C 30.082031 102.644531 102.644531 30.078125 191.835938 30.078125 C 281.027344 30.078125 353.589844 102.644531 353.589844 191.835938 C 353.589844 281.027344 281.027344 353.589844 191.835938 353.589844 Z M 191.835938 353.589844 "/>
    <path style=" stroke:none;fill-rule:nonzero;fill:rgb(0%,0%,0%);fill-opacity:1;" d="M 191.835938 105.722656 C 144.355469 105.722656 105.722656 144.351562 105.722656 191.835938 C 105.722656 217.535156 117.054688 240.628906 134.964844 256.417969 C 143.625 251.902344 153.128906 248.394531 163.238281 246.078125 C 143.785156 235.777344 130.492188 215.335938 130.492188 191.835938 C 130.492188 158.011719 158.011719 130.496094 191.835938 130.496094 C 225.660156 130.496094 253.175781 158.011719 253.175781 191.835938 C 253.175781 215.335938 239.890625 235.78125 220.433594 246.078125 C 230.546875 248.394531 240.046875 251.902344 248.707031 256.417969 C 266.617188 240.628906 277.949219 217.535156 277.949219 191.835938 C 277.949219 144.351562 239.316406 105.722656 191.835938 105.722656 Z M 191.835938 105.722656 "/>
    <path style=" stroke:none;fill-rule:nonzero;fill:rgb(0%,0%,0%);fill-opacity:1;" d="M 191.835938 50.871094 C 114.105469 50.871094 50.871094 114.105469 50.871094 191.835938 C 50.871094 232.070312 67.839844 268.390625 94.964844 294.097656 C 99.496094 285.953125 105.480469 278.46875 112.671875 271.894531 C 92.007812 251.460938 79.179688 223.121094 79.179688 191.835938 C 79.179688 129.71875 129.71875 79.179688 191.835938 79.179688 C 253.953125 79.179688 304.488281 129.71875 304.488281 191.835938 C 304.488281 223.121094 291.660156 251.460938 270.996094 271.894531 C 278.191406 278.46875 284.171875 285.953125 288.707031 294.097656 C 315.828125 268.390625 332.796875 232.070312 332.796875 191.835938 C 332.796875 114.105469 269.5625 50.871094 191.835938 50.871094 Z M 191.835938 50.871094 "/>
  </g>
</svg>

<svg xmlns="http://www.w3.org/2000/svg" viewBox="0 0 384 384"><path d="M191.836 0C86.055 0 0 86.055 0 191.836c0 105.777 86.055 191.836 191.836 191.836 105.777 0 191.836-86.059 191.836-191.836C383.668 86.055 297.613 0 191.836 0zm0 353.59c-89.191 0-161.754-72.563-161.754-161.754 0-89.191 72.563-161.758 161.754-161.758 89.191 0 161.754 72.567 161.754 161.758 0 89.191-72.563 161.754-161.754 161.754zm0 0"/><path d="M191.836 105.723c-47.48 0-86.113 38.629-86.113 86.113 0 25.7 11.332 48.793 29.242 64.582 8.66-4.516 18.164-8.023 28.273-10.34-19.453-10.3-32.746-30.742-32.746-54.242 0-33.824 27.52-61.34 61.344-61.34s61.34 27.516 61.34 61.34c0 23.5-13.285 43.945-32.742 54.242 10.113 2.317 19.613 5.824 28.273 10.34 17.91-15.79 29.242-38.883 29.242-64.582 0-47.484-38.633-86.113-86.113-86.113zm0 0"/><path d="M191.836 50.871c-77.73 0-140.965 63.234-140.965 140.965 0 40.234 16.969 76.555 44.094 102.262 4.531-8.145 10.515-15.63 17.707-22.203-20.664-20.434-33.492-48.774-33.492-80.06 0-62.116 50.539-112.655 112.656-112.655 62.117 0 112.652 50.539 112.652 112.656 0 31.285-12.828 59.625-33.492 80.059 7.195 6.574 13.176 14.058 17.711 22.203 27.121-25.707 44.09-62.028 44.09-102.262 0-77.73-63.235-140.965-140.961-140.965zm0 0"/></svg>
